icons-rebrand/svg/applications-bold.svg

<svg width="32" height="32" viewBox="0 0 32 32" fill="none" xmlns="http://www.w3.org/2000/svg">
<path d="M25 2H13C11.6753 2.00158 10.4052 2.52819 9.46798 3.46445C8.53079 4.40071 8.00291 5.67027 8 6.995V12H7C5.6744 12.0016 4.40356 12.5289 3.46622 13.4662C2.52888 14.4036 2.00159 15.6744 2 17V25C2.00159 26.3256 2.52888 27.5964 3.46622 28.5338C4.40356 29.4711 5.6744 29.9984 7 30H20C21.3256 29.9984 22.5964 29.4711 23.5338 28.5338C24.4711 27.5964 24.9984 26.3256 25 25V20C26.3256 19.9984 27.5964 19.4711 28.5338 18.5338C29.4711 17.5964 29.9984 16.3256 30 15V7C29.9984 5.6744 29.4711 4.40356 28.5338 3.46622C27.5964 2.52888 26.3256 2.00159 25 2ZM13 4H25C25.6184 4.00184 26.2211 4.19507 26.7253 4.55318C27.2296 4.91128 27.6105 5.41669 27.816 6H10.184C10.3895 5.41669 10.7704 4.91128 11.2747 4.55318C11.7789 4.19507 12.3816 4.00184 13 4ZM7 14H20C20.6184 14.0018 21.2211 14.1951 21.7253 14.5532C22.2296 14.9113 22.6105 15.4167 22.816 16H4.184C4.38945 15.4167 4.77044 14.9113 5.27465 14.5532C5.77886 14.1951 6.38157 14.0018 7 14ZM23 25C22.9992 25.7954 22.6829 26.558 22.1204 27.1204C21.558 27.6829 20.7954 27.9992 20 28H7C6.20459 27.9992 5.44199 27.6829 4.87956 27.1204C4.31712 26.558 4.00079 25.7954 4 25V18H23V25ZM28 15C27.9992 15.7954 27.6829 16.558 27.1204 17.1204C26.558 17.6829 25.7954 17.9992 25 18V17C24.9984 15.6744 24.4711 14.4036 23.5338 13.4662C22.5964 12.5289 21.3256 12.0016 20 12H10V8H28V15Z" fill="#0F0F0F"/>
</svg>

<svg width="32" height="32" viewBox="0 0 32 32" fill="none" xmlns="http://www.w3.org/2000/svg"><path d="M25 2H13a5.006 5.006 0 0 0-5 4.995V12H7a5.006 5.006 0 0 0-5 5v8a5.006 5.006 0 0 0 5 5h13a5.006 5.006 0 0 0 5-5v-5a5.006 5.006 0 0 0 5-5V7a5.006 5.006 0 0 0-5-5zM13 4h12a2.995 2.995 0 0 1 2.816 2H10.184A2.995 2.995 0 0 1 13 4zM7 14h13a2.995 2.995 0 0 1 2.816 2H4.184A2.995 2.995 0 0 1 7 14zm16 11a3.003 3.003 0 0 1-3 3H7a3.003 3.003 0 0 1-3-3v-7h19v7zm5-10a3.003 3.003 0 0 1-3 3v-1a5.006 5.006 0 0 0-5-5H10V8h18v7z" fill="#0F0F0F"/></svg>
